modules/coreui-icons-brand/icons/xiaomi.svg

<svg version="1.1" xmlns="http://www.w3.org/2000/svg" width="32" height="32" viewBox="0 0 32 32">
<title>xiaomi</title>
<path d="M26.615 26.667c-0.234 0-0.427-0.193-0.427-0.427v-20.479c0-0.234 0.193-0.427 0.427-0.427h4.948c0.24-0.005 0.438 0.188 0.438 0.427v20.479c0 0.24-0.198 0.432-0.438 0.427zM18.318 26.667c0 0-0.396-0.12-0.396-0.427v-12.573c0.052-1.651-1.281-3.016-2.938-3h-9.25c-0.536 0-0.401 0.401-0.401 0.401v15.172c0 0.359-0.401 0.427-0.401 0.427h-4.495c-0.24 0.005-0.438-0.188-0.438-0.427v-20.479c0-0.24 0.198-0.432 0.438-0.427h17.151c3.13 0.021 5.656 2.563 5.667 5.693l0.010 15.214c0 0.234-0.188 0.427-0.427 0.427zM9.12 26.667c-0.219 0-0.401-0.177-0.401-0.401v-12c0-0.219 0.182-0.401 0.401-0.401h5.026c0.219 0.010 0.385 0.188 0.385 0.401v12c0 0.224-0.177 0.401-0.396 0.401z"></path>
</svg>

<svg xmlns="http://www.w3.org/2000/svg" width="32" height="32" viewBox="0 0 32 32"><path d="M26.615 26.667a.43.43 0 01-.427-.427V5.761a.43.43 0 01.427-.427h4.948a.429.429 0 01.438.427V26.24c0 .24-.198.432-.438.427zm-8.297 0s-.396-.12-.396-.427V13.667a2.91 2.91 0 00-2.938-3h-9.25c-.536 0-.401.401-.401.401V26.24c0 .359-.401.427-.401.427H.437a.429.429 0 01-.438-.427V5.761c0-.24.198-.432.438-.427h17.151a5.71 5.71 0 015.667 5.693l.01 15.214a.426.426 0 01-.427.427zm-9.198 0a.401.401 0 01-.401-.401v-12c0-.219.182-.401.401-.401h5.026c.219.01.385.188.385.401v12a.397.397 0 01-.396.401z"/></svg>
